src/telerik-icons/solid/list-unordered.svg

<?xml version="1.0" encoding="utf-8"?>
<svg xmlns="http://www.w3.org/2000/svg" width="512" height="512" viewBox="0 0 512 512">
  <path d="M192 64h288v32H192V64zm0 160h288v32H192v-32zm0 160h288v32H192v-32zM80 32c-26.5 0-48 21.5-48 48s21.5 48 48 48 48-21.5 48-48-21.5-48-48-48zm0 160c-26.5 0-48 21.5-48 48s21.5 48 48 48 48-21.5 48-48-21.5-48-48-48zm0 160c-26.5 0-48 21.5-48 48s21.5 48 48 48 48-21.5 48-48-21.5-48-48-48z"/>
</svg>

<?xml version="1.0" encoding="utf-8"?>
<!-- Generator: Adobe Illustrator 19.2.1, SVG Export Plug-In . SVG Version: 6.00 Build 0)  -->
<svg xmlns="http://www.w3.org/2000/svg" width="512" height="512" viewBox="0 0 512 512">
<path d="M192,64h288v32H192V64z M192,224h288v32H192V224z M192,384h288v32H192V384z M80,32c-26.5,0-48,21.5-48,48s21.5,48,48,48
	s48-21.5,48-48S106.5,32,80,32z M80,192c-26.5,0-48,21.5-48,48s21.5,48,48,48s48-21.5,48-48S106.5,192,80,192z M80,352
	c-26.5,0-48,21.5-48,48s21.5,48,48,48s48-21.5,48-48S106.5,352,80,352z" />
</svg>
